billpay/insurance.svg

<svg width="48" height="48" viewBox="0 0 48 48" fill="none" xmlns="http://www.w3.org/2000/svg">
<mask id="mask0_3027_21342" style="mask-type:alpha" maskUnits="userSpaceOnUse" x="0" y="0" width="48" height="48">
<rect width="48" height="48" fill="#D9D9D9"/>
</mask>
<g mask="url(#mask0_3027_21342)">
<path d="M10 42C8.9 42 7.95833 41.6083 7.175 40.825C6.39167 40.0417 6 39.1 6 38V6H10V38H42V42H10ZM12 36V18H20V36H12ZM22 36V8H30V36H22ZM32 36V26H40V36H32Z" fill="white"/>
</g>
</svg>

<svg width="48" height="48" viewBox="0 0 48 48" fill="none" xmlns="http://www.w3.org/2000/svg"><path d="M10 42q-1.65 0-2.825-1.175T6 38V6h4v32h32v4zm2-6V18h8v18zm10 0V8h8v28zm10 0V26h8v10z" fill="#fff"/></svg>
